static/assets/img/icons/theme/weather/night-rain.svg

<svg height="24" viewBox="0 0 24 24" width="24" xmlns="http://www.w3.org/2000/svg"><g fill="none" fill-rule="evenodd"><path d="m0 0h24v24h-24z" opacity="0"/><g fill="#000"><path d="m17.2283644 2.20458594c-.1335654.8389813-.0548725 1.72329701.2714718 2.57345298.9843681 2.56436642 3.8511695 3.85200153 6.4187816 2.89158433-.271458 1.70514382-1.419679 3.22302745-3.1475342 3.88628885-2.5780111.9896058-5.4701361-.2980512-6.4597418-2.87606234-.9896058-2.57801116.2980512-5.47013611 2.8760623-6.45974188.0136448-.00523772.0272983-.01041166.0409603-.01552194zm-10.7283644 19.79541406c-.82842712 0-1.5-.6715729-1.5-1.5 0-.5522847.5-1.3856181 1.5-2.5 1 1.1143819 1.5 1.9477153 1.5 2.5 0 .8284271-.67157288 1.5-1.5 1.5zm5 0c-.8284271 0-1.5-.6715729-1.5-1.5 0-.5522847.5-1.3856181 1.5-2.5 1 1.1143819 1.5 1.9477153 1.5 2.5 0 .8284271-.6715729 1.5-1.5 1.5zm5 0c-.8284271 0-1.5-.6715729-1.5-1.5 0-.5522847.5-1.3856181 1.5-2.5 1 1.1143819 1.5 1.9477153 1.5 2.5 0 .8284271-.6715729 1.5-1.5 1.5z" opacity=".3"/><path d="m5.74714567 16.0425758c-1.65304205-1.0685402-2.74714567-2.9277872-2.74714567-5.0425758 0-3.3137085 2.6862915-6 6-6 2.7957591 0 5.1449096 1.91215918 5.8109738 4.5h2.4390262c2.0710678 0 3.75 1.6789322 3.75 3.75s-1.6789322 3.75-3.75 3.75h-9c-.96182105 0-1.83906822-.3621038-2.50285433-.9574242z"/></g></g></svg>

<svg width="24px" height="24px" viewBox="0 0 24 24" version="1.1" xmlns="http://www.w3.org/2000/svg" xmlns:xlink="http://www.w3.org/1999/xlink">
    <title>Icon For Night-rain</title>
    <g stroke="none" stroke-width="1" fill="none" fill-rule="evenodd">
        <polygon points="0 0 24 0 24 24 0 24" opacity="0"></polygon>
        <path d="M17.2283644,2.20458594 C17.094799,3.04356724 17.1734919,3.92788295 17.4998362,4.77803892 C18.4842043,7.34240534 21.3510057,8.63004045 23.9186178,7.66962325 C23.6471598,9.37476707 22.4989388,10.8926507 20.7710836,11.5559121 C18.1930725,12.5455179 15.3009475,11.2578609 14.3113418,8.67984976 C13.321736,6.1018386 14.609393,3.20971365 17.1874041,2.22010788 C17.2010489,2.21487016 17.2147024,2.20969622 17.2283644,2.20458594 Z M6.5,22 C5.67157288,22 5,21.3284271 5,20.5 C5,19.9477153 5.5,19.1143819 6.5,18 C7.5,19.1143819 8,19.9477153 8,20.5 C8,21.3284271 7.32842712,22 6.5,22 Z M11.5,22 C10.6715729,22 10,21.3284271 10,20.5 C10,19.9477153 10.5,19.1143819 11.5,18 C12.5,19.1143819 13,19.9477153 13,20.5 C13,21.3284271 12.3284271,22 11.5,22 Z M16.5,22 C15.6715729,22 15,21.3284271 15,20.5 C15,19.9477153 15.5,19.1143819 16.5,18 C17.5,19.1143819 18,19.9477153 18,20.5 C18,21.3284271 17.3284271,22 16.5,22 Z" fill="#000000" opacity="0.3"></path>
        <path d="M5.74714567,16.0425758 C4.09410362,14.9740356 3,13.1147886 3,11 C3,7.6862915 5.6862915,5 9,5 C11.7957591,5 14.1449096,6.91215918 14.8109738,9.5 L17.25,9.5 C19.3210678,9.5 21,11.1789322 21,13.25 C21,15.3210678 19.3210678,17 17.25,17 L8.25,17 C7.28817895,17 6.41093178,16.6378962 5.74714567,16.0425758 Z" fill="#000000"></path>
    </g>
</svg>
